dist/images/service-4.svg

<svg xmlns="http://www.w3.org/2000/svg" width="118" height="107"><path fill-rule="evenodd" fill="#DB8306" d="M81.987 60.761V3.49h26.263v77.091l-29.302-.01h-6.08v-19.82l9.119.01zm7.259-7.634h11.503c1.98 0 1.979 3.005 0 3.005H89.246c-1.98 0-1.981-3.005 0-3.005zm0-6.196h11.503c1.98 0 1.979 3.004 0 3.004H89.246c-1.98 0-1.981-3.004 0-3.004zm0-6.244h11.503c1.98 0 1.979 3.004 0 3.004H89.246c-1.98 0-1.981-3.004 0-3.004zm0-12.346h11.503c1.98 0 1.979 3.004 0 3.004H89.246c-1.98 0-1.981-3.004 0-3.004zm0-6.197h11.503c1.98 0 1.979 3.004 0 3.004H89.246c-1.98 0-1.981-3.004 0-3.004zm0-12.441h11.503c1.98 0 1.979 3.004 0 3.004H89.246c-1.98 0-1.981-3.004 0-3.004zm0 6.197h11.503c1.98 0 1.979 3.004 0 3.004H89.246c-1.98 0-1.981-3.004 0-3.004zm0 18.685h11.503c1.98 0 1.979 3.004 0 3.004H89.246c-1.98 0-1.981-3.004 0-3.004zm-9.071 37.273h20.574c1.98 0 1.979 3.005 0 3.005H80.175c-1.98 0-1.981-3.005 0-3.005zm9.071-12.44h11.503c1.98 0 1.979 3.004 0 3.004H89.246c-1.98 0-1.981-3.004 0-3.004zm-9.071 6.197h20.574c1.98 0 1.979 3.004 0 3.004H80.175c-1.98 0-1.981-3.004 0-3.004zm-10.346-17.06h2.547c.835 0 1.519.687 1.519 2.235v.01c0 .117-.685.805-1.519.805H61.487c-.04 0-.08-.002-.119-.005h-1.039c-.84 0-1.228.567-1.818 1.034-1.047.831-4.188 3.244-4.642 3.922 2.487 3.725 2.927 9.658 1.454 14.042-.789 2.348-.901 1.341.556 3.199.745.95 4.115 5.157 4.83 5.638l-.002-12.968c.039-2.942.535-2.666 9.122-2.666-.024-1.548.01-2.992.054-4.096.046-1.188.33-2.005 1.465-2.006h7.6V1.524c0-.922.601-1.524 1.519-1.524h29.078c.919 0 2.115.602 2.115 1.524v79.047h4.812c.837 0 1.52.688 1.52 2.389 0-.026-.686.661-1.52.661h-2.367v.009H60.709c-1.15 0-1.715-1.167-2.328-1.857l-5.461-6.532c-.654 1.24-1.639 2.189-1.71 3.051 2.15.576 2.685 4.644.603 6.515-.673.606-1.447.874-2.462 1.153-1.777.486-3.711 1.167-5.551 1.674-1.816.501-3.82 1.126-5.561 1.664-1.308.403-1.479 3.152-2.796 4.439-1.115 2.26-1.681 2.152-4.073 3.158l-7.595 2.995c-.553.774-7.615 5.806-9.112 6.802-.672.495-1.313.718-2.122-.327h-.001c-.08-.676-.347-1.634.326-2.131l7.596-5.595c-1.517-3.173-9.8-13.123-11.624-16.534l-6.424 4.731a1.519 1.519 0 01-2.123-.327v-.001c-.089-.676.269-1.634.325-2.13l8.779-6.466c2.816-2.079 5.605-4.332 8.378-6.484-.532-1.114-1.14-3.669-1.14-4.538 0-4.02.063-5.306 1.545-8.974 1.184-2.932 8.027-10.226 10.234-12.799-.308-1.331-1.52-3.137-1.52-4.576 0-1.866 1.541-3.241 3.42-3.241.492 0 .195.127.95.19.93-1.763 2.455-4.194 4.848-4.194 2.767 0 4.28 1.384 5.411 4.194.781-.065.424-.19 1.139-.19 1.713 0 3.23 1.493 3.23 3.241 0 1.439-1.21 3.245-1.519 4.576.333.5.448.734.898 1.195 1.217 1.246 5.991 6.907 6.701 7.385 1.237-.332 5.778-5.149 7.219-5.149h10.64v.007zM31.95 55.353l-.036-.169c-.465-2.005-.462-1.939-.462-3.967 0-2.107.994-2.749 1.329-3.977-2.034 0-1.111-.01-2.805.972l-1.782 2.024c-1.88 2.362-5.913 6.252-7.002 8.607-2.638 5.708-1.007 7.916-.949 10.487.568-.151 1.536-1.084 2.123-1.491 3.745-2.594 7.946.262 7.946 3.589 0 3.753-1.376 3.847-1.9 6.101H47.79c.98-1.077 2.736-4.123 3.482-4.899 2.277-4.666 2.334-9.276.43-13.517-1.528-3.404-9.383-10.517-9.801-11.873H40.1c.277 1.401 1.579 2.53 1.021 6.374-.003.525-.241 1.289-.358 1.843-.175.819-.947 1.203-1.783 1.203-.873 0-1.363-1.015-1.199-1.789.143-.674.51-2.009.51-2.7 0-1.583-.975-3.764-1.9-4.385-.925.621-1.899 2.774-1.899 4.385 0 .775.284 2.149.439 2.597.174.818-.363 1.788-1.199 1.788-.794 0-1.603-.354-1.782-1.203zM24.232 79.54c0 1.611 2.761 1.039 5.51 1.039l17.67-.001c1.764-.012 2.025-.246 3.288.955-.466 1.269-3.074 1.606-3.884 1.882-1.335.454-2.692.821-4.088 1.237-1.454 1.198-2.761.821-4.079 1.243-4.143 1.324-2.916.222-5.424 5.234-1.452 3.191-.542 2.621-5.929 4.35-1.126 1.021-3.011.923-3.376 1.497-1.472-2.419-12.046-14.046-12.728-16.605l3.325-2.487c1.216-.913 9.788-7.982 10.855-7.982.833 0 2.288.777 1.838 1.596.344 1.946-2.978 5.969-2.978 8.042zm5.89-38.999c1.068.024 2.22 1.319 3.668-1.276.412-.517.744-1.066 1.08-1.585.888-1.373 1.704-2.092 2.968-.116 1.976 3.089 2.146 3.037 4.822 2.977-.162.699-.989 3.432-1.709 3.432h-9.12c-.833 0-1.379-2.691-1.709-3.432z"/></svg>

<svg 
 xmlns="http://www.w3.org/2000/svg"
 xmlns:xlink="http://www.w3.org/1999/xlink"
 width="118px" height="107px">
<path fill-rule="evenodd"  fill="rgb(219, 131, 6)"
 d="M81.987,60.761 L81.987,3.49 L108.25,3.49 L108.25,80.581 L78.948,80.571 L72.868,80.571 L72.868,60.751 L81.987,60.761 L81.987,60.761 ZM89.246,53.127 L100.749,53.127 C102.729,53.127 102.728,56.132 100.749,56.132 L89.246,56.132 C87.266,56.132 87.265,53.127 89.246,53.127 L89.246,53.127 ZM89.246,46.931 L100.749,46.931 C102.729,46.931 102.728,49.935 100.749,49.935 L89.246,49.935 C87.266,49.935 87.265,46.931 89.246,46.931 L89.246,46.931 ZM89.246,40.687 L100.749,40.687 C102.729,40.687 102.728,43.691 100.749,43.691 L89.246,43.691 C87.266,43.691 87.265,40.687 89.246,40.687 L89.246,40.687 ZM89.246,28.341 L100.749,28.341 C102.729,28.341 102.728,31.345 100.749,31.345 L89.246,31.345 C87.266,31.345 87.265,28.341 89.246,28.341 L89.246,28.341 ZM89.246,22.144 L100.749,22.144 C102.729,22.144 102.728,25.148 100.749,25.148 L89.246,25.148 C87.266,25.148 87.265,22.144 89.246,22.144 L89.246,22.144 ZM89.246,9.703 L100.749,9.703 C102.729,9.703 102.728,12.707 100.749,12.707 L89.246,12.707 C87.266,12.707 87.265,9.703 89.246,9.703 L89.246,9.703 ZM89.246,15.900 L100.749,15.900 C102.729,15.900 102.728,18.904 100.749,18.904 L89.246,18.904 C87.266,18.904 87.265,15.900 89.246,15.900 L89.246,15.900 ZM89.246,34.585 L100.749,34.585 C102.729,34.585 102.728,37.589 100.749,37.589 L89.246,37.589 C87.266,37.589 87.265,34.585 89.246,34.585 L89.246,34.585 ZM80.175,71.858 L100.749,71.858 C102.729,71.858 102.728,74.863 100.749,74.863 L80.175,74.863 C78.195,74.863 78.194,71.858 80.175,71.858 L80.175,71.858 ZM89.246,59.418 L100.749,59.418 C102.729,59.418 102.728,62.422 100.749,62.422 L89.246,62.422 C87.266,62.422 87.265,59.418 89.246,59.418 L89.246,59.418 ZM80.175,65.615 L100.749,65.615 C102.729,65.615 102.728,68.619 100.749,68.619 L80.175,68.619 C78.195,68.619 78.194,65.615 80.175,65.615 L80.175,65.615 ZM69.829,48.555 L72.376,48.555 C73.211,48.555 73.895,49.242 73.895,50.79 L73.895,50.80 C73.895,50.917 73.210,51.605 72.376,51.605 L61.487,51.605 C61.447,51.605 61.407,51.603 61.368,51.600 L60.329,51.600 C59.489,51.600 59.101,52.167 58.511,52.634 C57.464,53.465 54.323,55.878 53.869,56.556 C56.356,60.281 56.796,66.214 55.323,70.598 C54.534,72.946 54.422,71.939 55.879,73.797 C56.624,74.747 59.994,78.954 60.709,79.435 L60.707,66.467 C60.746,63.525 61.242,63.801 69.829,63.801 C69.805,62.253 69.839,60.809 69.883,59.705 C69.929,58.517 70.213,57.700 71.348,57.699 L78.948,57.699 L78.948,1.524 C78.948,0.602 79.549,0.0 80.467,0.0 L109.545,0.0 C110.464,0.0 111.66,0.602 111.66,1.524 L111.66,80.571 L116.472,80.571 C117.309,80.571 117.992,81.259 117.992,82.96 L117.992,82.96 C117.992,82.934 117.306,83.621 116.472,83.621 L114.105,83.621 L114.105,83.630 L60.709,83.630 C59.559,83.630 58.994,82.463 58.381,81.773 L52.920,75.241 C52.266,76.481 51.281,77.430 51.210,78.292 C53.360,78.868 53.895,82.936 51.813,84.807 C51.140,85.413 50.366,85.681 49.351,85.960 C47.574,86.446 45.640,87.127 43.800,87.634 C41.984,88.135 39.980,88.760 38.239,89.298 C36.931,89.701 36.76,92.450 35.443,93.737 C34.328,95.997 33.762,95.889 31.370,96.895 L23.775,99.890 C23.222,100.664 16.16,105.696 14.663,106.692 C13.991,107.187 13.35,107.41 12.541,106.365 L12.540,106.365 C12.46,105.689 12.193,104.731 12.866,104.234 L20.462,98.639 C18.945,95.466 10.662,85.516 8.838,82.105 L2.414,86.836 C1.742,87.332 0.785,87.186 0.291,86.509 L0.291,86.508 C0.202,85.832 0.56,84.874 0.616,84.378 L9.395,77.912 C12.211,75.833 15.0,73.580 17.773,71.428 C17.241,70.314 16.633,67.759 16.633,66.89 C16.633,62.87 16.696,61.584 18.178,57.916 C19.362,54.984 26.205,47.690 28.412,45.117 C28.104,43.786 26.892,41.980 26.892,40.541 C26.892,38.675 28.433,37.300 30.312,37.300 C30.804,37.300 30.507,37.427 31.262,37.490 C32.192,35.727 33.717,33.296 36.11,33.296 C38.877,33.296 40.39,34.680 41.521,37.490 C42.302,37.425 41.945,37.300 42.660,37.300 C44.373,37.300 45.890,38.793 45.890,40.541 C45.890,41.980 44.680,43.786 44.371,45.117 C44.704,45.617 44.819,45.851 45.269,46.312 C46.486,47.558 51.260,53.219 51.970,53.697 C53.207,53.365 57.748,48.548 59.189,48.548 L69.829,48.548 L69.829,48.555 L69.829,48.555 ZM31.950,55.353 L31.914,55.184 C31.449,53.179 31.452,53.245 31.452,51.217 C31.452,49.110 32.446,48.468 32.781,47.24 C30.747,47.24 31.67,47.23 29.976,48.212 L28.194,50.236 C26.314,52.598 22.281,56.488 21.192,58.843 C18.554,64.551 20.185,66.759 20.243,69.330 C20.811,69.179 21.779,68.246 22.366,67.839 C26.111,65.245 30.312,68.101 30.312,71.428 C30.312,75.181 28.936,75.275 28.412,77.529 L47.790,77.529 C48.77,76.452 50.526,73.406 51.272,72.63 C53.549,67.964 53.606,63.354 51.702,59.113 C50.174,55.709 42.319,48.596 41.901,47.24 L40.1,47.24 C40.377,48.641 41.679,49.770 41.121,53.614 C41.118,54.139 40.880,54.903 40.763,55.457 C40.588,56.276 39.816,56.660 38.980,56.660 C38.107,56.660 37.617,55.645 37.781,54.871 C37.924,54.197 38.291,52.862 38.291,52.171 C38.291,50.588 37.316,48.407 36.391,47.786 C35.466,48.407 34.492,50.560 34.492,52.171 C34.492,52.946 34.776,54.32 34.931,54.768 C35.105,55.586 34.568,56.556 33.732,56.556 C32.938,56.556 32.129,56.202 31.950,55.353 L31.950,55.353 ZM24.232,79.54 C24.232,81.151 26.993,80.579 29.742,80.579 L47.412,80.578 C49.176,80.566 49.437,80.332 50.70,81.533 C50.234,82.802 47.626,83.139 46.816,83.415 C45.481,83.869 44.124,84.236 42.728,84.652 C41.274,85.85 39.967,85.473 38.649,85.895 C34.506,87.219 35.733,86.117 33.225,91.129 C31.773,94.32 32.683,93.75 27.296,95.479 C26.17,96.50 24.285,96.402 23.92,96.976 C22.448,94.557 11.874,82.930 11.192,80.371 L14.517,77.884 C15.733,76.971 24.305,69.902 25.372,69.902 C26.205,69.902 27.66,70.679 27.210,71.498 C27.554,73.444 24.232,77.467 24.232,79.54 L24.232,79.54 ZM30.122,40.541 C31.190,40.565 32.342,41.86 33.790,39.265 C34.202,38.748 34.534,38.199 34.870,37.680 C35.758,36.307 36.574,35.588 37.838,37.564 C39.814,40.653 39.984,40.601 42.660,40.541 C42.498,41.240 41.671,43.973 40.951,43.973 L31.831,43.973 C30.998,43.973 30.452,41.282 30.122,40.541 L30.122,40.541 Z"/>
</svg>
